images/instagram_white.svg

<svg width="16" height="16" viewBox="0 0 16 16" fill="none" xmlns="http://www.w3.org/2000/svg">
<path fill-rule="evenodd" clip-rule="evenodd" d="M8 0C3.58172 0 0 3.58173 0 8C0 12.4183 3.58172 16 8 16C12.4183 16 16 12.4183 16 8C16 3.58173 12.4183 0 8 0ZM6.24191 3.75887C6.69703 3.73816 6.84245 3.7331 8.00122 3.7331H7.99988C9.15901 3.7331 9.3039 3.73816 9.75901 3.75887C10.2132 3.77967 10.5235 3.85159 10.7955 3.9571C11.0764 4.06599 11.3137 4.21176 11.551 4.4491C11.7884 4.68626 11.9341 4.92431 12.0435 5.20493C12.1484 5.47622 12.2204 5.78627 12.2417 6.24049C12.2621 6.69561 12.2675 6.84104 12.2675 7.99981C12.2675 9.15857 12.2621 9.30365 12.2417 9.75875C12.2204 10.2128 12.1484 10.5229 12.0435 10.7943C11.9341 11.0749 11.7884 11.3129 11.551 11.5501C11.314 11.7874 11.0763 11.9335 10.7957 12.0425C10.5243 12.148 10.2139 12.2199 9.75963 12.2407C9.30452 12.2615 9.15954 12.2665 8.00068 12.2665C6.84201 12.2665 6.69667 12.2615 6.24156 12.2407C5.78742 12.2199 5.47728 12.148 5.20581 12.0425C4.92536 11.9335 4.68732 11.7874 4.45025 11.5501C4.213 11.3129 4.06722 11.0749 3.95815 10.7942C3.85273 10.5229 3.78082 10.2129 3.75993 9.75866C3.73931 9.30355 3.73415 9.15857 3.73415 7.99981C3.73415 6.84104 3.73949 6.69552 3.75984 6.24041C3.78029 5.78635 3.85229 5.47622 3.95807 5.20485C4.0674 4.92431 4.21318 4.68626 4.45051 4.4491C4.68767 4.21185 4.92572 4.06608 5.20634 3.9571C5.47764 3.85159 5.78768 3.77967 6.24191 3.75887Z" fill="#4F4F4F"/>
<path fill-rule="evenodd" clip-rule="evenodd" d="M7.61506 4.50228L7.85561 4.50224L7.99781 4.50228C9.13703 4.50228 9.27205 4.50638 9.72192 4.52682C10.1379 4.54584 10.3637 4.61535 10.5141 4.67375C10.7132 4.75108 10.8552 4.84353 11.0044 4.99287C11.1538 5.1422 11.2462 5.28442 11.3237 5.48354C11.3821 5.63376 11.4517 5.85954 11.4707 6.27555C11.4911 6.72533 11.4955 6.86044 11.4955 7.99912C11.4955 9.1378 11.4911 9.27291 11.4707 9.72269C11.4516 10.1387 11.3821 10.3645 11.3237 10.5147C11.2464 10.7138 11.1538 10.8556 11.0044 11.0048C10.8551 11.1542 10.7133 11.2466 10.5141 11.324C10.3639 11.3826 10.1379 11.452 9.72192 11.471C9.27214 11.4914 9.13703 11.4959 7.99781 11.4959C6.85851 11.4959 6.72349 11.4914 6.27371 11.471C5.8577 11.4518 5.63192 11.3823 5.48143 11.3239C5.28232 11.2465 5.1401 11.1541 4.99076 11.0048C4.84143 10.8554 4.74898 10.7136 4.67147 10.5144C4.61307 10.3641 4.54347 10.1383 4.52453 9.72234C4.50409 9.27256 4.5 9.13744 4.5 7.99805C4.5 6.85866 4.50409 6.72426 4.52453 6.27448C4.54356 5.85848 4.61307 5.63269 4.67147 5.48229C4.7488 5.28317 4.84143 5.14096 4.99076 4.99162C5.1401 4.84228 5.28232 4.74984 5.48143 4.67233C5.63183 4.61367 5.8577 4.54433 6.27371 4.52522C6.66731 4.50744 6.81985 4.5021 7.61506 4.50122V4.50228ZM10.2754 5.21091C9.99268 5.21091 9.76335 5.43999 9.76335 5.72274C9.76335 6.00541 9.99268 6.23475 10.2754 6.23475C10.558 6.23475 10.7874 6.00541 10.7874 5.72274C10.7874 5.44007 10.558 5.21073 10.2754 5.21073V5.21091ZM5.80676 7.99988C5.80676 6.78986 6.78779 5.8088 7.9978 5.80875C9.20786 5.80875 10.1887 6.78983 10.1887 7.99988C10.1887 9.20994 9.20795 10.1906 7.99789 10.1906C6.78783 10.1906 5.80676 9.20994 5.80676 7.99988Z" fill="#4F4F4F"/>
<path d="M8.00036 6.57764C8.78579 6.57764 9.4226 7.21436 9.4226 7.99988C9.4226 8.78531 8.78579 9.42212 8.00036 9.42212C7.21484 9.42212 6.57812 8.78531 6.57812 7.99988C6.57812 7.21436 7.21484 6.57764 8.00036 6.57764Z" fill="#4F4F4F"/>
</svg>

<svg width="16" height="16" fill="none" xmlns="http://www.w3.org/2000/svg"><path fill-rule="evenodd" clip-rule="evenodd" d="M8 0a8 8 0 1 0 0 16A8 8 0 0 0 8 0zM6.242 3.759c.455-.02.6-.026 1.76-.026H8c1.159 0 1.304.005 1.759.026.454.02.764.093 1.037.198.28.109.518.255.755.492s.383.475.492.756c.105.271.177.581.199 1.035.02.456.025.601.025 1.76s-.005 1.304-.025 1.759c-.022.454-.094.764-.199 1.035-.109.28-.255.519-.492.756a2.087 2.087 0 0 1-.755.492c-.272.106-.582.178-1.036.199-.455.02-.6.026-1.76.026-1.158 0-1.303-.005-1.758-.026-.455-.021-.765-.093-1.036-.198a2.09 2.09 0 0 1-.756-.493 2.09 2.09 0 0 1-.492-.756c-.105-.271-.177-.581-.198-1.035-.02-.455-.026-.6-.026-1.76 0-1.158.005-1.303.026-1.759.02-.454.092-.764.198-1.035.11-.28.255-.519.493-.756a2.09 2.09 0 0 1 .755-.492c.272-.105.582-.177 1.036-.198z" fill="#4F4F4F"/><path fill-rule="evenodd" clip-rule="evenodd" d="M7.615 4.502h.383c1.139 0 1.274.004 1.724.025.416.019.642.088.792.147.2.077.341.17.49.319.15.15.242.291.32.49.058.15.128.377.147.793.02.45.024.584.024 1.723 0 1.139-.004 1.274-.024 1.724-.02.416-.089.641-.147.792-.078.199-.17.34-.32.49a1.32 1.32 0 0 1-.49.319c-.15.059-.376.128-.792.147-.45.02-.585.025-1.724.025-1.14 0-1.275-.005-1.724-.025-.416-.02-.642-.089-.793-.147-.199-.078-.34-.17-.49-.32a1.323 1.323 0 0 1-.32-.49c-.058-.15-.128-.376-.146-.792-.02-.45-.025-.585-.025-1.724 0-1.14.004-1.274.025-1.724.019-.416.088-.641.146-.792.078-.199.17-.341.32-.49.15-.15.291-.242.49-.32.15-.058.377-.128.793-.147.393-.018.546-.023 1.341-.024v.001zm2.66.709a.512.512 0 1 0 0 1.024.512.512 0 0 0 0-1.024zM5.807 8a2.191 2.191 0 1 1 4.382 0 2.191 2.191 0 0 1-4.382 0z" fill="#4F4F4F"/><path d="M8 6.578a1.422 1.422 0 1 1 0 2.844 1.422 1.422 0 0 1 0-2.844z" fill="#4F4F4F"/></svg>
